X:1
T:Title
%%score ( 1 2 ) 3
L:1/8
Q:1/4=145
M:6/4
K:G
V:1 treble nm="Grand Piano, Soprano"
V:2 treble 
V:3 bass nm="Choir Pad, Balboa Park, 77.77 D"
V:1
 [DG]4 [B,D]2 [DB]4 [DG]2 | [Gd]4 [Gd]2 [GB]6 | [FA]4 [GB]2 [Ac]2 [Bd]2 [ce]2 | [Bd]4 [GB]2 [Bd]6 | %4
w: By~Asa~Hull,~1899 * * *||||
 [DG]4 [B,D]2 [DB]4 [DG]2 | [Gd]4 [Gd]2 [GB]6 | A2 B2 [Fc]2 [GB]4 [DA]2 | [DG]4 [CF]2 [B,G]6 | %8
w: ||||
 [CA]4 [CA]2 F2 E2 [CD]2 | [DB]4 [DB]2 [DG]6 | [CA]4 [CA]2 F2 E2 [CD]2 | [DB]4 [DB]2 [DG]6 | %12
w: ||||
 [DG]4 [B,D]2 [DB]4 [DG]2 | [Gd]4 [Gd]2 [GB]6 | A2 B2 [Fc]2 [GB]4 [DA]2 | [DG]4 [CF]2 [B,G]6- | %16
w: ||||
 [B,G]6 z6 |] %17
w: |
V:2
 x12 | x12 | x12 | x12 | x12 | x12 | .E6 z6 | x12 | z6 .C6 | x12 | z6 .C6 | x12 | x12 | x12 | %14
 .E6 z6 | x12 | x12 |] %17
V:3
 [G,B,]4 G,2 G,4 [G,B,]2 | [G,B,]4 [G,B,]2 [G,D]6 | [D,D]4 [D,D]2 [D,D]4 [D,D]2 | %3
 [G,D]4 [G,D]2 [G,D]6 | [G,B,]4 G,2 G,4 G,2 | [G,B,]4 [G,B,]2 [G,D]6 | %6
 [C,A,]2 [B,,^G,]2 [A,,A,]2 [D,=G,]4 [D,C]2 | [D,B,]4 [D,A,]2 [G,,G,]6 | %8
 [D,F,]4 [D,F,]2 [D,A,]4 [D,A,]2 | G,4 G,2 [G,B,]6 | [D,F,]4 [D,F,]2 [D,A,]4 [D,A,]2 | %11
 G,4 G,2 [G,B,]6 | [G,B,]4 G,2 G,4 G,2 | [G,B,]4 [G,B,]2 [G,D]6 | %14
 [C,A,]2 [B,,^G,]2 [A,,A,]2 [D,=G,]4 [D,C]2 | [D,B,]4 [D,A,]2 [G,,G,]6- | [G,,G,]6 z6 |] %17

